X: 2482
T: Ballydesmond, The
R: polka
M: 2/4
K: Adorian
|:"Am"EA AB|cd e2|"G"G>F GA|GE ED|
"Am"EA AB|B/c/d ef|"G"g/f/e"Em" dB|"Am"A2 A2:|
|:"Am"a>g ab|ag ef|"G"g>f ga|ge d2|
"Am"ea ab|ag ef|"G"ge "E7"dB|"Am"A2 A2:|
|:"Am"c2 "Em"Bc/B/|"Am"AB/A/ G>A|"G"Bd ed|g2 gd|
"Am"e/g/a "Em"ge|"G"dB GA/B/|"Am"ce "Em"dB|"Am"A2 A2:|
|:"Am"ea ag/e/|"G"dg ge/d/|"Am"ea ab|"Em"g2 ed|
"Am"ea "Em"g/a/g/e/|"G"dB GA/B/|"Am"ce "Em"dB|"Am"A2 A2:|

